X: 1
T: Reign Of Love by Keith Murphy
Q: 1/2=110
R: march
M: 4/4
L: 1/8
K: Edor
|:B,2|"Em" E2 FG A2 B2|G4 F4|"D" A2 GF E2 A2|"(Em)" GF E2 "(Bm)" FE D2|
"Em" E2 FG A2 B2|G4 F4|"D" A2 GF EF D2|1 "Em" E6:|2 "Em" E8||
|:"Em" e2 B2 d2 A2|A2 BA G2 F2|"A" A2 GF E2 A2|"G" B2 G2 "D" d4|
"Em" e2 B2 d2 A2|A2 BA G2 F2|"D" A2 GF EF D2|1 E8:|2 E6||